X: 0581
M: 2/4
L: 1/16
K: G
dc |\
|: Bc |\
dcBA GBdg | e2c2c2e2 | dcBc Afag | f2d2d2c2 | BGdG BGdG | AFDF AFcA | Bgfg ecAF | G2B2G2 :|

